packages/fxa-settings/src/components/ConnectedServices/pontoon.svg

<?xml version="1.0" encoding="UTF-8"?>
<svg xmlns="http://www.w3.org/2000/svg" xmlns:xlink="http://www.w3.org/1999/xlink" width="24px" height="24px" viewBox="0 0 24 24" version="1.1">
<g id="surface1">
<path style=" stroke:none;fill-rule:nonzero;fill:rgb(0%,0%,0%);fill-opacity:1;" d="M 4.511719 3.089844 C 4.496094 3.125 4.480469 7.847656 4.472656 13.582031 L 4.460938 24 L 7.433594 24 L 7.417969 15.03125 C 7.410156 6.914062 7.414062 6.050781 7.492188 5.980469 C 7.566406 5.90625 8.097656 5.894531 12.703125 5.894531 C 17.300781 5.894531 17.84375 5.90625 17.917969 5.980469 C 17.988281 6.050781 18 6.664062 18 11.949219 C 18 17.234375 17.988281 17.84375 17.917969 17.917969 C 17.84375 17.988281 17.4375 18 14.1875 18 C 11.3125 18 10.527344 18.015625 10.511719 18.0625 C 10.496094 18.097656 10.480469 19.449219 10.476562 21.066406 L 10.460938 24 L 13.433594 24 L 13.417969 22.554688 C 13.414062 21.679688 13.429688 21.074219 13.460938 21.027344 C 13.503906 20.957031 14 20.941406 17.203125 20.921875 L 20.894531 20.894531 L 20.894531 3.050781 L 12.714844 3.035156 C 6.199219 3.027344 4.527344 3.035156 4.511719 3.089844 Z M 4.511719 3.089844 "/>
<path style=" stroke:none;fill-rule:nonzero;fill:rgb(0%,0%,0%);fill-opacity:1;" d="M 10.511719 9.089844 C 10.496094 9.125 10.492188 10.445312 10.496094 12.027344 L 10.511719 14.894531 L 14.894531 14.894531 L 14.894531 9.050781 L 12.714844 9.035156 C 11 9.027344 10.527344 9.035156 10.511719 9.089844 Z M 10.511719 9.089844 "/>
</g>
</svg>

<svg xmlns="http://www.w3.org/2000/svg" width="24" height="24"><path d="M4.512 3.09c-.016.035-.032 4.758-.04 10.492L4.462 24h2.973l-.016-8.969c-.008-8.117-.004-8.98.074-9.05.074-.075.606-.086 5.211-.086 4.598 0 5.14.011 5.215.085.07.07.082.684.082 5.97 0 5.284-.012 5.894-.082 5.968-.074.07-.48.082-3.73.082-2.876 0-3.66.016-3.676.063-.016.035-.032 1.386-.035 3.003L10.46 24h2.973l-.016-1.445c-.004-.875.012-1.48.043-1.528.043-.07.539-.086 3.742-.105l3.692-.027V3.05l-8.18-.016c-6.516-.008-8.188 0-8.203.055zm0 0"/><path d="M10.512 9.09c-.016.035-.02 1.355-.016 2.937l.016 2.868h4.383V9.05l-2.18-.016c-1.715-.008-2.188 0-2.203.055zm0 0"/></svg>
